images/icon_twitter.svg

<svg viewBox="0 0 172 140" xmlns="http://www.w3.org/2000/svg" xml:space="preserve" style="fill-rule:evenodd;clip-rule:evenodd;stroke-linejoin:round;stroke-miterlimit:2"><path d="M170.654 16.466a70.2 70.2 0 0 1-20.172 5.53c7.252-4.347 12.826-11.226 15.443-19.427a70.2 70.2 0 0 1-22.295 8.525A35.1 35.1 0 0 0 117.985.001c-19.394 0-35.12 15.726-35.12 35.115 0 2.759.31 5.435.907 8.003-29.184-1.461-55.061-15.44-72.391-36.693a35 35 0 0 0-4.75 17.659c0 12.179 6.198 22.935 15.616 29.227a35 35 0 0 1-15.902-4.394v.442c0 17.011 12.11 31.208 28.169 34.434a35.4 35.4 0 0 1-9.254 1.237c-2.26 0-4.464-.225-6.604-.637 4.467 13.955 17.436 24.101 32.803 24.394-12.014 9.417-27.157 15.031-43.622 15.031-2.832 0-5.625-.173-8.372-.49 15.542 9.951 34.003 15.767 53.848 15.767 64.594 0 99.919-53.5 99.919-99.908 0-1.517-.037-3.033-.095-4.549a71.5 71.5 0 0 0 17.517-18.173" style="fill:#f0f0f0;fill-rule:nonzero"/></svg>

<?xml version="1.0" encoding="UTF-8" standalone="no"?>
<!DOCTYPE svg PUBLIC "-//W3C//DTD SVG 1.1//EN" "http://www.w3.org/Graphics/SVG/1.1/DTD/svg11.dtd">
<svg width="100%" height="100%" viewBox="0 0 172 140" version="1.1" xmlns="http://www.w3.org/2000/svg" xmlns:xlink="http://www.w3.org/1999/xlink" xml:space="preserve" xmlns:serif="http://www.serif.com/" style="fill-rule:evenodd;clip-rule:evenodd;stroke-linejoin:round;stroke-miterlimit:2;">
    <path id="Twitter" d="M170.654,16.466C164.354,19.26 157.584,21.147 150.482,21.996C157.734,17.649 163.308,10.77 165.925,2.569C159.148,6.593 151.63,9.52 143.63,11.094C137.217,4.263 128.086,0.001 117.985,0.001C98.591,0.001 82.865,15.727 82.865,35.116C82.865,37.875 83.175,40.551 83.772,43.119C54.588,41.658 28.711,27.679 11.381,6.426C8.362,11.619 6.631,17.649 6.631,24.085C6.631,36.264 12.829,47.02 22.247,53.312C16.496,53.135 11.082,51.544 6.345,48.918L6.345,49.36C6.345,66.371 18.455,80.568 34.514,83.794C31.57,84.591 28.459,85.031 25.26,85.031C23,85.031 20.796,84.806 18.656,84.394C23.123,98.349 36.092,108.495 51.459,108.788C39.445,118.205 24.302,123.819 7.837,123.819C5.005,123.819 2.212,123.646 -0.535,123.329C15.007,133.28 33.468,139.096 53.313,139.096C117.907,139.096 153.232,85.596 153.232,39.188C153.232,37.671 153.195,36.155 153.137,34.639C159.986,29.696 165.935,23.513 170.654,16.466Z" style="fill:rgb(240,240,240);fill-rule:nonzero;"/>
</svg>
